build/images/icons/enter.svg

<svg width="14" height="14" viewBox="0 0 14 14" xmlns="http://www.w3.org/2000/svg">
  <path d="M7.05258 8.28595C5.10435 8.28595 3.52586 6.39365 3.52586 4.06109C3.52586 1.72879 5.10435 0 7.05258 0C9.00112 0 10.5809 1.72879 10.5809 4.06109C10.5809 6.39365 9.00107 8.28595 7.05258 8.28595ZM1.56663 13.9974C1.56663 13.9974 0.818561 14.0467 0.489064 13.5927C0.311025 13.3474 0.435047 12.8504 0.556799 12.573L0.854976 11.8935C0.854976 11.8935 1.6796 10.0492 2.61831 8.9805C3.19495 8.32514 3.88077 8.47438 4.32436 8.68752C4.59757 8.81866 4.90649 9.20076 5.13224 9.40326C5.44333 9.68227 5.99252 9.99936 6.89038 10.0172H7.44124C8.33854 9.99936 8.88774 9.68227 9.19858 9.40326C9.42408 9.20081 9.72447 8.80685 9.99521 8.67138C10.4023 8.46757 11.022 8.34219 11.5835 8.98055C12.5226 10.0493 13.2662 11.9271 13.2662 11.9271L13.5718 12.5934C13.6983 12.8689 13.8278 13.3634 13.6547 13.612C13.3458 14.0564 12.6523 13.9974 12.6523 13.9974L1.56663 13.9974Z"/>
</svg>

<svg width="14" height="14" xmlns="http://www.w3.org/2000/svg"><path d="M7.053 8.286c-1.949 0-3.527-1.892-3.527-4.225C3.526 1.73 5.104 0 7.053 0 9 0 10.58 1.729 10.58 4.061c0 2.333-1.58 4.225-3.528 4.225zm-5.486 5.711s-.748.05-1.078-.404c-.178-.246-.054-.743.068-1.02l.298-.68S1.68 10.05 2.618 8.98c.577-.655 1.263-.506 1.706-.292.274.13.582.513.808.715.311.28.86.596 1.758.614h.551C8.34 10 8.888 9.682 9.2 9.403c.225-.202.525-.596.796-.732.407-.203 1.027-.329 1.589.31.939 1.068 1.682 2.946 1.682 2.946l.306.666c.126.276.256.77.083 1.019-.31.444-1.003.385-1.003.385H1.567z"/></svg>
